X: 1
T: Hairpin Bend, The
M: 6/8
L: 1/8
R: jig
K: Gmaj
|:G2B D2B| G3 G2e | d2c ABc | ded cBA |
G2B D2B| G3 G2e | dcB cBA | G3 G3:|
|: g3 gfg | a2g fed | efg def | gdc BAG |
g3 gfg | a2g fed | efg def | g3 g3 :|
